TileServer und Tiles/svg/9/91_3.svg

<?xml version='1.0' encoding='UTF-8' standalone='no'?>
<svg xmlns="http://www.w3.org/2000/svg" width="497pt" viewBox="0 0 497 279" xmlns:xlink="http://www.w3.org/1999/xlink" height="279pt">
 <defs style="stroke:none;" overflow="visible">
  <path id="glyph0-7" d="M 1.734375 0 L 0.84375 0 L 0.84375 -7.59375 L 1.734375 -7.59375 Z M 1.734375 0 "/>
  <path id="glyph0-6" d="M 2.921875 -5.453125 C 3.378906 -5.453125 3.769531 -5.351562 4.09375 -5.15625 C 4.425781 -4.957031 4.679688 -4.675781 4.859375 -4.3125 C 5.035156 -3.945312 5.125 -3.523438 5.125 -3.046875 L 5.125 -2.515625 L 1.453125 -2.515625 C 1.472656 -1.898438 1.628906 -1.4375 1.921875 -1.125 C 2.222656 -0.8125 2.640625 -0.65625 3.171875 -0.65625 C 3.515625 -0.65625 3.816406 -0.6875 4.078125 -0.75 C 4.335938 -0.8125 4.609375 -0.898438 4.890625 -1.015625 L 4.890625 -0.25 C 4.617188 -0.125 4.347656 -0.0351562 4.078125 0.015625 C 3.816406 0.0664062 3.5 0.09375 3.125 0.09375 C 2.625 0.09375 2.175781 -0.00390625 1.78125 -0.203125 C 1.394531 -0.410156 1.09375 -0.71875 0.875 -1.125 C 0.65625 -1.539062 0.546875 -2.046875 0.546875 -2.640625 C 0.546875 -3.222656 0.644531 -3.722656 0.84375 -4.140625 C 1.039062 -4.566406 1.316406 -4.890625 1.671875 -5.109375 C 2.023438 -5.335938 2.441406 -5.453125 2.921875 -5.453125 Z M 2.90625 -4.734375 C 2.488281 -4.734375 2.15625 -4.597656 1.90625 -4.328125 C 1.664062 -4.066406 1.523438 -3.691406 1.484375 -3.203125 L 4.203125 -3.203125 C 4.203125 -3.660156 4.097656 -4.03125 3.890625 -4.3125 C 3.679688 -4.59375 3.351562 -4.734375 2.90625 -4.734375 Z M 2.90625 -4.734375 "/>
  <path id="glyph0-5" d="M 2.640625 -0.625 C 2.773438 -0.625 2.910156 -0.632812 3.046875 -0.65625 C 3.191406 -0.675781 3.304688 -0.703125 3.390625 -0.734375 L 3.390625 -0.0625 C 3.296875 -0.0078125 3.160156 0.0234375 2.984375 0.046875 C 2.816406 0.078125 2.648438 0.09375 2.484375 0.09375 C 2.203125 0.09375 1.941406 0.046875 1.703125 -0.046875 C 1.472656 -0.140625 1.285156 -0.304688 1.140625 -0.546875 C 0.992188 -0.785156 0.921875 -1.125 0.921875 -1.5625 L 0.921875 -4.6875 L 0.15625 -4.6875 L 0.15625 -5.09375 L 0.9375 -5.453125 L 1.28125 -6.59375 L 1.796875 -6.59375 L 1.796875 -5.359375 L 3.34375 -5.359375 L 3.34375 -4.6875 L 1.796875 -4.6875 L 1.796875 -1.578125 C 1.796875 -1.253906 1.875 -1.015625 2.03125 -0.859375 C 2.1875 -0.703125 2.390625 -0.625 2.640625 -0.625 Z M 2.640625 -0.625 "/>
  <path id="glyph0-4" d="M 2.875 -5.453125 C 3.53125 -5.453125 4.015625 -5.304688 4.328125 -5.015625 C 4.640625 -4.734375 4.796875 -4.28125 4.796875 -3.65625 L 4.796875 0 L 4.15625 0 L 3.984375 -0.765625 L 3.953125 -0.765625 C 3.710938 -0.460938 3.460938 -0.242188 3.203125 -0.109375 C 2.953125 0.0234375 2.601562 0.09375 2.15625 0.09375 C 1.664062 0.09375 1.257812 -0.03125 0.9375 -0.28125 C 0.613281 -0.539062 0.453125 -0.941406 0.453125 -1.484375 C 0.453125 -2.023438 0.660156 -2.4375 1.078125 -2.71875 C 1.503906 -3.007812 2.15625 -3.171875 3.03125 -3.203125 L 3.9375 -3.234375 L 3.9375 -3.546875 C 3.9375 -3.992188 3.835938 -4.300781 3.640625 -4.46875 C 3.453125 -4.644531 3.179688 -4.734375 2.828125 -4.734375 C 2.546875 -4.734375 2.28125 -4.691406 2.03125 -4.609375 C 1.78125 -4.523438 1.539062 -4.429688 1.3125 -4.328125 L 1.046875 -4.984375 C 1.285156 -5.117188 1.5625 -5.226562 1.875 -5.3125 C 2.195312 -5.40625 2.53125 -5.453125 2.875 -5.453125 Z M 3.9375 -2.625 L 3.140625 -2.59375 C 2.472656 -2.5625 2.007812 -2.453125 1.75 -2.265625 C 1.5 -2.078125 1.375 -1.816406 1.375 -1.484375 C 1.375 -1.179688 1.460938 -0.957031 1.640625 -0.8125 C 1.828125 -0.675781 2.0625 -0.609375 2.34375 -0.609375 C 2.800781 -0.609375 3.179688 -0.734375 3.484375 -0.984375 C 3.785156 -1.234375 3.9375 -1.617188 3.9375 -2.140625 Z M 3.9375 -2.625 "/>
  <path id="glyph0-3" d="M 3 0.09375 C 2.53125 0.09375 2.109375 0 1.734375 -0.1875 C 1.367188 -0.382812 1.078125 -0.6875 0.859375 -1.09375 C 0.648438 -1.5 0.546875 -2.019531 0.546875 -2.65625 C 0.546875 -3.3125 0.65625 -3.84375 0.875 -4.25 C 1.09375 -4.664062 1.390625 -4.96875 1.765625 -5.15625 C 2.148438 -5.351562 2.582031 -5.453125 3.0625 -5.453125 C 3.332031 -5.453125 3.59375 -5.425781 3.84375 -5.375 C 4.101562 -5.320312 4.3125 -5.253906 4.46875 -5.171875 L 4.203125 -4.4375 C 4.035156 -4.5 3.84375 -4.554688 3.625 -4.609375 C 3.414062 -4.660156 3.222656 -4.6875 3.046875 -4.6875 C 1.984375 -4.6875 1.453125 -4.007812 1.453125 -2.65625 C 1.453125 -2.007812 1.582031 -1.515625 1.84375 -1.171875 C 2.101562 -0.828125 2.484375 -0.65625 2.984375 -0.65625 C 3.285156 -0.65625 3.546875 -0.6875 3.765625 -0.75 C 3.984375 -0.8125 4.1875 -0.882812 4.375 -0.96875 L 4.375 -0.1875 C 4.195312 -0.09375 4 -0.0234375 3.78125 0.015625 C 3.5625 0.0664062 3.300781 0.09375 3 0.09375 Z M 3 0.09375 "/>
  <path id="glyph0-2" d="M 5.515625 -2.6875 C 5.515625 -1.800781 5.285156 -1.113281 4.828125 -0.625 C 4.378906 -0.144531 3.773438 0.09375 3.015625 0.09375 C 2.535156 0.09375 2.109375 -0.0078125 1.734375 -0.21875 C 1.367188 -0.4375 1.078125 -0.753906 0.859375 -1.171875 C 0.648438 -1.585938 0.546875 -2.09375 0.546875 -2.6875 C 0.546875 -3.570312 0.769531 -4.253906 1.21875 -4.734375 C 1.664062 -5.210938 2.273438 -5.453125 3.046875 -5.453125 C 3.523438 -5.453125 3.945312 -5.34375 4.3125 -5.125 C 4.6875 -4.914062 4.976562 -4.601562 5.1875 -4.1875 C 5.40625 -3.78125 5.515625 -3.28125 5.515625 -2.6875 Z M 1.453125 -2.6875 C 1.453125 -2.050781 1.578125 -1.546875 1.828125 -1.171875 C 2.078125 -0.804688 2.476562 -0.625 3.03125 -0.625 C 3.570312 -0.625 3.96875 -0.804688 4.21875 -1.171875 C 4.46875 -1.546875 4.59375 -2.050781 4.59375 -2.6875 C 4.59375 -3.320312 4.46875 -3.816406 4.21875 -4.171875 C 3.96875 -4.535156 3.566406 -4.71875 3.015625 -4.71875 C 2.472656 -4.71875 2.078125 -4.535156 1.828125 -4.171875 C 1.578125 -3.816406 1.453125 -3.320312 1.453125 -2.6875 Z M 1.453125 -2.6875 "/>
  <path id="glyph0-1" d="M 2.859375 -7.140625 C 3.796875 -7.140625 4.476562 -6.957031 4.90625 -6.59375 C 5.332031 -6.226562 5.546875 -5.710938 5.546875 -5.046875 C 5.546875 -4.648438 5.457031 -4.28125 5.28125 -3.9375 C 5.101562 -3.59375 4.804688 -3.3125 4.390625 -3.09375 C 3.972656 -2.882812 3.40625 -2.78125 2.6875 -2.78125 L 1.875 -2.78125 L 1.875 0 L 0.96875 0 L 0.96875 -7.140625 Z M 2.78125 -6.375 L 1.875 -6.375 L 1.875 -3.546875 L 2.59375 -3.546875 C 3.269531 -3.546875 3.773438 -3.65625 4.109375 -3.875 C 4.441406 -4.09375 4.609375 -4.46875 4.609375 -5 C 4.609375 -5.457031 4.460938 -5.800781 4.171875 -6.03125 C 3.878906 -6.257812 3.414062 -6.375 2.78125 -6.375 Z M 2.78125 -6.375 "/>
  <path id="glyph0-0" d="M 0.9375 0 L 0.9375 -7.140625 L 5.046875 -7.140625 L 5.046875 0 Z M 1.453125 -0.515625 L 4.546875 -0.515625 L 4.546875 -6.625 L 1.453125 -6.625 Z M 1.453125 -0.515625 "/>
 </defs>
 <image width="497" xlink:href="svg/9/91_3.jpg" height="279"/>
 <g>
  <path d="M 162.992188 50.621094 C 163.929688 50.621094 164.609375 50.804688 165.039062 51.167969 C 165.464844 51.535156 165.679688 52.050781 165.679688 52.714844 C 165.679688 53.113281 165.589844 53.480469 165.414062 53.824219 C 165.234375 54.167969 164.9375 54.449219 164.523438 54.667969 C 164.105469 54.878906 163.539062 54.980469 162.820312 54.980469 L 162.007812 54.980469 L 162.007812 57.761719 L 161.101562 57.761719 L 161.101562 50.621094 Z M 162.914062 51.386719 L 162.007812 51.386719 L 162.007812 54.214844 L 162.726562 54.214844 C 163.402344 54.214844 163.90625 54.105469 164.242188 53.886719 C 164.574219 53.667969 164.742188 53.292969 164.742188 52.761719 C 164.742188 52.304688 164.59375 51.960938 164.304688 51.730469 C 164.011719 51.503906 163.546875 51.386719 162.914062 51.386719 Z M 162.914062 51.386719 " transform=" rotate(  340 181.617 54.7609) " style="fill:none;stroke-width:3;stroke-linecap:butt;stroke-linejoin:round;stroke:rgb(100%,100%,100%);stroke-opacity:0.6;stroke-miterlimit:10;"/>
  <path d="M 171.699219 55.074219 C 171.699219 55.960938 171.46875 56.648438 171.011719 57.136719 C 170.5625 57.617188 169.957031 57.855469 169.199219 57.855469 C 168.71875 57.855469 168.292969 57.753906 167.917969 57.542969 C 167.550781 57.324219 167.261719 57.007812 167.042969 56.589844 C 166.832031 56.175781 166.730469 55.667969 166.730469 55.074219 C 166.730469 54.191406 166.953125 53.507812 167.402344 53.027344 C 167.847656 52.550781 168.457031 52.308594 169.230469 52.308594 C 169.707031 52.308594 170.128906 52.417969 170.496094 52.636719 C 170.871094 52.847656 171.160156 53.160156 171.371094 53.574219 C 171.589844 53.980469 171.699219 54.480469 171.699219 55.074219 Z M 167.636719 55.074219 C 167.636719 55.710938 167.761719 56.214844 168.011719 56.589844 C 168.261719 56.957031 168.660156 57.136719 169.214844 57.136719 C 169.753906 57.136719 170.152344 56.957031 170.402344 56.589844 C 170.652344 56.214844 170.777344 55.710938 170.777344 55.074219 C 170.777344 54.441406 170.652344 53.945312 170.402344 53.589844 C 170.152344 53.226562 169.75 53.042969 169.199219 53.042969 C 168.65625 53.042969 168.261719 53.226562 168.011719 53.589844 C 167.761719 53.945312 167.636719 54.441406 167.636719 55.074219 Z M 167.636719 55.074219 " transform=" rotate(  340 181.617 54.7609) " style="fill:none;stroke-width:3;stroke-linecap:butt;stroke-linejoin:round;stroke:rgb(100%,100%,100%);stroke-opacity:0.6;stroke-miterlimit:10;"/>
  <path d="M 175.230469 57.855469 C 174.761719 57.855469 174.339844 57.761719 173.964844 57.574219 C 173.597656 57.378906 173.308594 57.074219 173.089844 56.667969 C 172.878906 56.261719 172.777344 55.742188 172.777344 55.105469 C 172.777344 54.449219 172.886719 53.917969 173.105469 53.511719 C 173.324219 53.097656 173.621094 52.792969 173.996094 52.605469 C 174.378906 52.410156 174.8125 52.308594 175.292969 52.308594 C 175.5625 52.308594 175.824219 52.335938 176.074219 52.386719 C 176.332031 52.441406 176.542969 52.507812 176.699219 52.589844 L 176.433594 53.324219 C 176.265625 53.261719 176.074219 53.207031 175.855469 53.152344 C 175.644531 53.101562 175.453125 53.074219 175.277344 53.074219 C 174.214844 53.074219 173.683594 53.753906 173.683594 55.105469 C 173.683594 55.753906 173.8125 56.246094 174.074219 56.589844 C 174.332031 56.933594 174.714844 57.105469 175.214844 57.105469 C 175.515625 57.105469 175.777344 57.074219 175.996094 57.011719 C 176.214844 56.949219 176.417969 56.878906 176.605469 56.792969 L 176.605469 57.574219 C 176.425781 57.667969 176.230469 57.738281 176.011719 57.777344 C 175.792969 57.828125 175.53125 57.855469 175.230469 57.855469 Z M 175.230469 57.855469 " transform=" rotate(  340 181.617 54.7609) " style="fill:none;stroke-width:3;stroke-linecap:butt;stroke-linejoin:round;stroke:rgb(100%,100%,100%);stroke-opacity:0.6;stroke-miterlimit:10;"/>
  <path d="M 179.90625 52.308594 C 180.5625 52.308594 181.046875 52.457031 181.359375 52.746094 C 181.671875 53.027344 181.828125 53.480469 181.828125 54.105469 L 181.828125 57.761719 L 181.1875 57.761719 L 181.015625 56.996094 L 180.984375 56.996094 C 180.742188 57.300781 180.492188 57.519531 180.234375 57.652344 C 179.984375 57.785156 179.632812 57.855469 179.1875 57.855469 C 178.695312 57.855469 178.289062 57.730469 177.96875 57.480469 C 177.644531 57.222656 177.484375 56.820312 177.484375 56.277344 C 177.484375 55.738281 177.691406 55.324219 178.109375 55.042969 C 178.535156 54.753906 179.1875 54.589844 180.0625 54.558594 L 180.96875 54.527344 L 180.96875 54.214844 C 180.96875 53.769531 180.867188 53.460938 180.671875 53.292969 C 180.484375 53.117188 180.210938 53.027344 179.859375 53.027344 C 179.578125 53.027344 179.3125 53.070312 179.0625 53.152344 C 178.8125 53.238281 178.570312 53.332031 178.34375 53.433594 L 178.078125 52.777344 C 178.316406 52.644531 178.59375 52.535156 178.90625 52.449219 C 179.226562 52.355469 179.5625 52.308594 179.90625 52.308594 Z M 180.96875 55.136719 L 180.171875 55.167969 C 179.503906 55.199219 179.039062 55.308594 178.78125 55.496094 C 178.53125 55.683594 178.40625 55.945312 178.40625 56.277344 C 178.40625 56.582031 178.492188 56.804688 178.671875 56.949219 C 178.859375 57.085938 179.09375 57.152344 179.375 57.152344 C 179.832031 57.152344 180.210938 57.027344 180.515625 56.777344 C 180.816406 56.527344 180.96875 56.144531 180.96875 55.621094 Z M 180.96875 55.136719 " transform=" rotate(  340 181.617 54.7609) " style="fill:none;stroke-width:3;stroke-linecap:butt;stroke-linejoin:round;stroke:rgb(100%,100%,100%);stroke-opacity:0.6;stroke-miterlimit:10;"/>
  <path d="M 185.28125 57.136719 C 185.414062 57.136719 185.550781 57.128906 185.6875 57.105469 C 185.832031 57.085938 185.945312 57.058594 186.03125 57.027344 L 186.03125 57.699219 C 185.9375 57.753906 185.800781 57.785156 185.625 57.808594 C 185.457031 57.839844 185.289062 57.855469 185.125 57.855469 C 184.84375 57.855469 184.582031 57.808594 184.34375 57.714844 C 184.113281 57.621094 183.925781 57.457031 183.78125 57.214844 C 183.632812 56.976562 183.5625 56.636719 183.5625 56.199219 L 183.5625 53.074219 L 182.796875 53.074219 L 182.796875 52.667969 L 183.578125 52.308594 L 183.921875 51.167969 L 184.4375 51.167969 L 184.4375 52.402344 L 185.984375 52.402344 L 185.984375 53.074219 L 184.4375 53.074219 L 184.4375 56.183594 C 184.4375 56.507812 184.515625 56.746094 184.671875 56.902344 C 184.828125 57.058594 185.03125 57.136719 185.28125 57.136719 Z M 185.28125 57.136719 " transform=" rotate(  340 181.617 54.7609) " style="fill:none;stroke-width:3;stroke-linecap:butt;stroke-linejoin:round;stroke:rgb(100%,100%,100%);stroke-opacity:0.6;stroke-miterlimit:10;"/>
  <path d="M 189.171875 52.308594 C 189.628906 52.308594 190.019531 52.410156 190.34375 52.605469 C 190.675781 52.804688 190.929688 53.085938 191.109375 53.449219 C 191.285156 53.816406 191.375 54.238281 191.375 54.714844 L 191.375 55.246094 L 187.703125 55.246094 C 187.722656 55.863281 187.878906 56.324219 188.171875 56.636719 C 188.472656 56.949219 188.890625 57.105469 189.421875 57.105469 C 189.765625 57.105469 190.066406 57.074219 190.328125 57.011719 C 190.585938 56.949219 190.859375 56.863281 191.140625 56.746094 L 191.140625 57.511719 C 190.867188 57.636719 190.597656 57.726562 190.328125 57.777344 C 190.066406 57.828125 189.75 57.855469 189.375 57.855469 C 188.875 57.855469 188.425781 57.757812 188.03125 57.558594 C 187.644531 57.351562 187.34375 57.042969 187.125 56.636719 C 186.90625 56.222656 186.796875 55.714844 186.796875 55.121094 C 186.796875 54.539062 186.894531 54.039062 187.09375 53.621094 C 187.289062 53.195312 187.566406 52.871094 187.921875 52.652344 C 188.273438 52.425781 188.691406 52.308594 189.171875 52.308594 Z M 189.15625 53.027344 C 188.738281 53.027344 188.40625 53.164062 188.15625 53.433594 C 187.914062 53.695312 187.773438 54.070312 187.734375 54.558594 L 190.453125 54.558594 C 190.453125 54.101562 190.347656 53.730469 190.140625 53.449219 C 189.929688 53.167969 189.601562 53.027344 189.15625 53.027344 Z M 189.15625 53.027344 " transform=" rotate(  340 181.617 54.7609) " style="fill:none;stroke-width:3;stroke-linecap:butt;stroke-linejoin:round;stroke:rgb(100%,100%,100%);stroke-opacity:0.6;stroke-miterlimit:10;"/>
  <path d="M 193.625 57.761719 L 192.734375 57.761719 L 192.734375 50.167969 L 193.625 50.167969 Z M 193.625 57.761719 " transform=" rotate(  340 181.617 54.7609) " style="fill:none;stroke-width:3;stroke-linecap:butt;stroke-linejoin:round;stroke:rgb(100%,100%,100%);stroke-opacity:0.6;stroke-miterlimit:10;"/>
  <path d="M 196.207031 57.761719 L 195.316406 57.761719 L 195.316406 50.167969 L 196.207031 50.167969 Z M 196.207031 57.761719 " transform=" rotate(  340 181.617 54.7609) " style="fill:none;stroke-width:3;stroke-linecap:butt;stroke-linejoin:round;stroke:rgb(100%,100%,100%);stroke-opacity:0.6;stroke-miterlimit:10;"/>
  <path d="M 202.566406 55.074219 C 202.566406 55.960938 202.335938 56.648438 201.878906 57.136719 C 201.429688 57.617188 200.824219 57.855469 200.066406 57.855469 C 199.585938 57.855469 199.160156 57.753906 198.785156 57.542969 C 198.417969 57.324219 198.128906 57.007812 197.910156 56.589844 C 197.699219 56.175781 197.597656 55.667969 197.597656 55.074219 C 197.597656 54.191406 197.820312 53.507812 198.269531 53.027344 C 198.714844 52.550781 199.324219 52.308594 200.097656 52.308594 C 200.574219 52.308594 200.996094 52.417969 201.363281 52.636719 C 201.738281 52.847656 202.027344 53.160156 202.238281 53.574219 C 202.457031 53.980469 202.566406 54.480469 202.566406 55.074219 Z M 198.503906 55.074219 C 198.503906 55.710938 198.628906 56.214844 198.878906 56.589844 C 199.128906 56.957031 199.527344 57.136719 200.082031 57.136719 C 200.621094 57.136719 201.019531 56.957031 201.269531 56.589844 C 201.519531 56.214844 201.644531 55.710938 201.644531 55.074219 C 201.644531 54.441406 201.519531 53.945312 201.269531 53.589844 C 201.019531 53.226562 200.617188 53.042969 200.066406 53.042969 C 199.523438 53.042969 199.128906 53.226562 198.878906 53.589844 C 198.628906 53.945312 198.503906 54.441406 198.503906 55.074219 Z M 198.503906 55.074219 " transform=" rotate(  340 181.617 54.7609) " style="fill:none;stroke-width:3;stroke-linecap:butt;stroke-linejoin:round;stroke:rgb(100%,100%,100%);stroke-opacity:0.6;stroke-miterlimit:10;"/>
  <g transform=" rotate(  340 181.617 54.7609) " style="fill:rgb(13.333333%,13.333333%,13.333333%);fill-opacity:1;">
   <use xlink:href="#glyph0-1" y="57.760899" x="160.131719"/>
   <use xlink:href="#glyph0-2" y="57.760899" x="166.181719"/>
   <use xlink:href="#glyph0-3" y="57.760899" x="172.231719"/>
   <use xlink:href="#glyph0-4" y="57.760899" x="177.031719"/>
   <use xlink:href="#glyph0-5" y="57.760899" x="182.641719"/>
   <use xlink:href="#glyph0-6" y="57.760899" x="186.251719"/>
   <use xlink:href="#glyph0-7" y="57.760899" x="191.891719"/>
   <use xlink:href="#glyph0-7" y="57.760899" x="194.471719"/>
   <use xlink:href="#glyph0-2" y="57.760899" x="197.051719"/>
  </g>
 </g>
</svg>

<svg xmlns="http://www.w3.org/2000/svg" xmlns:xlink="http://www.w3.org/1999/xlink" viewBox="0 0 497 279"> <defs overflow="visible" style="stroke:none">  <path id="g" d="M1.7 0H.8v-7.6h1Zm0 0"/>  <path id="f" d="M3-5.5c.3 0 .7.1 1 .3a2 2 0 0 1 1 .9v1.8H1.5c0 .5.1 1 .4 1.4.3.3.7.4 1.3.4H4l.9-.3v.8L4 0a5 5 0 0 1-1 0 3 3 0 0 1-1.2-.1 2.2 2.2 0 0 1-1-1.1c0-.2-.2-.8-.2-1.3-.1-.7 0-1.2.2-1.6.2-.5.5-.9.9-1 .3-.2.7-.4 1.2-.4Zm0 .8c-.6 0-.9.1-1 .4-.4.2-.6.6-.6 1.1h2.8c0-.5-.1-.8-.3-1.1-.2-.3-.5-.4-1-.4Zm0 0"/>  <path id="e" d="M2.6-.6H3l.4-.2v.7L3 0H1.7l-.6-.5-.1-1v-3.3H.2V-5l.7-.5.4-1h.5v1h1.5v.8H1.8v3.1c0 .3 0 .6.2.7l.6.3Zm0 0"/>  <path id="d" d="M2.9-5.5c.6 0 1.1.2 1.4.5.3.3.5.7.5 1.3V0h-.6L4-.8c-.3.3-.5.6-.8.8h-1c-.5 0-1 0-1.3-.3C.6-.5.5-.9.5-1.5c0-.5.2-1 .5-1.2.5-.3 1-.5 2-.5h.8v-.3c.2-.5.2-.8-.2-1l-.8-.2H2l-.7.5L1-5l1-.3.9-.2Zm1 2.9h-.8c-.6 0-1 .1-1.4.3-.1.3-.3.5-.3.8 0 .3 0 .5.2.7l.7.2c.5 0 .9-.1 1.2-.4.3-.2.4-.6.4-1Zm.1 0"/>  <path id="c" d="M3 0c-.5 0-.9 0-1.3-.1-.3-.3-.6-.6-.7-.9-.4-.5-.5-1-.5-1.7 0-.6.2-1.1.5-1.5 0-.6.4-.8.8-1.1.2-.1.8-.2 1.2-.2l.8.1.7.2-.3.8-.6-.2H3c-1-.1-1.5.6-1.5 1.9 0 .7 0 1 .3 1.4.3.5.7.6 1.2.6h.8l.6-.3v.8a2 2 0 0 1-.6.2H3Zm0 0"/>  <path id="b" d="M5.5-2.7c0 .9-.2 1.7-.7 2-.4.7-1 .9-1.8.9-.5-.2-.9-.2-1.3-.4-.3-.2-.6-.6-.7-1C.6-1.6.5-2 .5-2.7c0-.9.3-1.6.7-2 .5-.5 1-.8 1.8-.8.5 0 1 .2 1.3.5.4 0 .7.4.9.9.2.2.3.7.3 1.3Zm-4 0c0 .7 0 1.2.3 1.5.3.4.7.6 1.2.6.6 0 1-.2 1.2-.6.3-.3.4-.8.4-1.5s-.1-1.1-.4-1.5c-.2-.3-.6-.5-1.2-.5-.5 0-1 .2-1.2.5-.2.4-.3.9-.3 1.5Zm0 0"/>  <path id="a" d="M2.9-7.1c.9 0 1.6.1 2 .5.4.4.6.9.6 1.6 0 .4 0 .7-.2 1-.3.5-.5.8-1 1l-1.5.1h-.9V0h-1v-7.1Zm-.1.7h-1v2.9h.9c.6 0 1.1-.2 1.3-.5.4 0 .6-.5.6-1s-.1-.8-.4-1c-.3-.3-.8-.4-1.4-.4Zm0 0"/>  <path d="M1 0v-7.1h4V0Zm.4-.5h3.1v-6.1h-3Zm.1 0"/> </defs> <image xlink:href="svg/9/91_3.jpg" width="497" height="279"/> <path d="M163 50.6c1 0 1.6.2 2 .6.5.3.7.8.7 1.5 0 .4-.1.8-.3 1.1-.2.4-.4.6-.9.9-.4.2-1 .3-1.7.3h-.8v2.8h-.9v-7.2Zm0 .8h-1v2.8h.7c.7 0 1.3 0 1.5-.2.4-.3.5-.7.5-1.2s-.1-.8-.4-1c-.3-.4-.8-.5-1.4-.5Zm8.7 3.6c0 1-.2 1.7-.7 2.2-.4.4-1 .8-1.8.8-.5-.1-1-.2-1.3-.5-.3-.2-.6-.5-.9-1-.2-.2-.3-.7-.3-1.3 0-1.2.3-1.7.7-2.2.4-.5 1-.8 1.8-.8.5.1 1 .2 1.3.4.4.2.7.6.9 1 .2.4.3.9.3 1.4Zm-4 0c-.1.8-.1 1.3.3 1.7.3.3.7.3 1.2.3.6.1 1 0 1.2-.4.3-.4.4-.9.4-1.6 0-.6-.1-1.1-.4-1.4-.2-.4-.7-.6-1.2-.6s-1 .2-1.2.6c-.2.3-.4.8-.4 1.4Zm7.5 2.9c-.4 0-.9-.1-1.2-.3-.4-.2-.7-.6-1-1l-.1-1.4c-.1-.8-.1-1.2.1-1.7.3-.4.6-.7 1-.9.4-.2.8-.3 1.3-.3h.7l.7.4-.3.6-.4-.1-.7-.2c-1 0-1.6.8-1.6 2 0 .8.1 1.2.3 1.6.3.3.7.4 1.2.4h.8l.6-.3v.9a2 2 0 0 1-.6.2h-.8Zm4.8-5.6c.5 0 1 .2 1.3.4.4.3.5.8.5 1.4v3.7h-.6l-.2-.8-.8.7-1 .2c-.5 0-1-.2-1.2-.4-.4-.3-.5-.7-.5-1.2 0-.6.2-1 .5-1.3.5-.2 1.1-.4 2.1-.4h.9v-.5c0-.3-.1-.6-.3-.9l-.8-.2c-.3 0-.6 0-.9.2l-.7.2-.2-.6.8-.4h1.1Zm1 2.8h-.8c-.7.2-1.2.3-1.4.5-.3.1-.4.3-.4.7 0 .3 0 .5.3.6.2.2.3.3.7.3.4 0 .8-.2 1.1-.4.3-.3.5-.8.5-1.2Zm4.3 2h.7v.5l-.4.2h-1.3c-.2-.3-.3-.4-.5-.7-.2-.1-.2-.5-.2-.9v-3.1h-.8v-.4l.8-.4.3-1.1h.5v1.2h1.6v.7h-1.6V56c0 .6.1.8.3 1 .1.1.3.1.6.1Zm3.9-4.8c.4 0 .8.1 1.1.3a2 2 0 0 1 .8.8c.2.4.3.8.3 1.3v.5h-3.7c0 .8.2 1.1.5 1.4.3.4.7.5 1.2.5h1l.6-.5v.9l-.7.3a5 5 0 0 1-1 0 3 3 0 0 1-1.3-.1 2.2 2.2 0 0 1-.9-1.1c-.1-.4-.3-.9-.3-1.5s0-1 .3-1.5l.8-1c.4-.1.8-.2 1.3-.2Zm0 .7c-.5 0-.8.2-1 .4-.3.3-.4.7-.5 1.2h2.8c0-.6-.2-.9-.5-1.2 0-.2-.4-.4-.9-.4Zm4.4 4.8h-.9v-7.6h1Zm2.6 0h-.9v-7.6h1Zm6.4-2.8c0 1-.3 1.7-.7 2.2-.5.4-1 .8-1.9.8-.4-.1-1-.2-1.2-.5-.4-.2-.8-.5-.9-1-.2-.2-.3-.7-.3-1.3 0-1.2.2-1.7.7-2.2.4-.5 1-.8 1.7-.8.6.1 1 .2 1.4.4.3.2.6.6.8 1 .3.4.4.9.4 1.4Zm-4.1 0c0 .8.1 1.3.4 1.7.1.3.6.3 1.1.3.6.1 1 0 1.3-.4.2-.4.3-.9.3-1.6 0-.6 0-1.1-.3-1.4-.3-.4-.7-.6-1.3-.6-.5 0-1 .2-1.1.6-.3.3-.4.8-.4 1.4Zm0 0" style="fill:none;stroke-width:3;stroke-linecap:butt;stroke-linejoin:round;stroke:#fff;stroke-opacity:.6;stroke-miterlimit:10" transform=" rotate(  340 181.617 54.7609) "/> <g style="fill:#222;fill-opacity:1" transform=" rotate(  340 181.617 54.7609) ">  <use xlink:href="#a" x="160.1" y="57.8"/>  <use xlink:href="#b" x="166.2" y="57.8"/>  <use xlink:href="#c" x="172.2" y="57.8"/>  <use xlink:href="#d" x="177" y="57.8"/>  <use xlink:href="#e" x="182.6" y="57.8"/>  <use xlink:href="#f" x="186.3" y="57.8"/>  <use xlink:href="#g" x="191.9" y="57.8"/>  <use xlink:href="#g" x="194.5" y="57.8"/>  <use xlink:href="#b" x="197.1" y="57.8"/> </g></svg>
